X: 2
T: The Raggle Taggle Gypsies
R: polka
M: 2/4
L: 1/8
K: Dmaj
C|:D2 C2 B,3C|D2 C2 B,3B,|B3B c2 B2|A2 FE F3F|A2 A2 B2 F^G|A^G FE3 B,C|DCDE FAFE|D2 C2 B,2 zC:|


Tune 2681	Setting 24501

